X:384
T:Fairy Dance, The
C:Apologies to Nathaniel Gow
Z:Nigel Gatherer
M:4/4
L:1/8
K:D
de | f2 fd cdeg | f2 fd gfed  | cABc d2  :|
fg | a2 ba gfge | fefd  B2 ge | cABc defg |
     a2 ba gfge | fefd  B2 ge | cABc d2  |]
